X: 18783
T: If We Hadn't Any Women In The World
R: barndance
M: 4/4
K: Dmajor
|:f>g|a>ba>f d>ef>d|B>dG>B A2 d>e|f>df>d b>af>d|e2- e>d e2 f>g|
a>ba>f d>ef>d|(3BcB G>B A2 d>e|f>da>f e>de>f|d4 d2:|
|:f>a|b>ab>c’ d’2 c’>d'|(3aba a>g a2 f>g|a>df>a b>af>d|e2- e>f e2 f>g|
a>ga>f d>ef>d|(3BcB G>B A2 d>e|f>da>f e>de>f|d4 d2:|

